X:1
T:The Piper o' Dundee
M:2/4
L:1/8
K:Bb
 D| G3/2 A/2 BG| D2 D=E|F-G AB|c-A FA| G3/2 A/2 BG| D2 De| dc B/2 A3/2|\
 G2 z A| B3/2 B/2 Bd| c3/2 c/2 cd| B3/2 B/2 Bd| cA FF| B/2 B3/2 Bd|\
 c3/2 c/2 ce| dc B/2 A3/2| G2 z D| G3/2 A/2 BG| D2 D=E|F-G AB|c-A FA|\
 G3/2 A/2 BG| D2 De| dc B/2 A3/2| G2 z||
